X:1
T:Assurance
%%score 1 2 3 4
L:1/8
M:6/4
K:A
V:1 treble nm="Soprano" snm="S."
V:2 alto nm="Alto" snm="A."
V:3 treble-8 nm="Tenor" snm="T."
V:4 bass nm="Bass" snm="B."
V:1
 z4 z4 z4 | e2 d2 (cB) (c2 A2) c2 | B4 B2 c6- | c4 B2 (c2 A2) B2 | c6- c4 B2 | A4 B2 (c2 d2) (ed) | %6
w: |now shall my * head * be|lifte- ed high|* be lift- * ed|high * a-|bove my foes * a *|
 (c2 A2 A2 A4) z2 | z4 z4 z4 | z4 z2 z4 B2 | (c2 d2) e2 (d2 B2) B2 | B4 B2 B4 A2 | %11
w: round * * *||and|songs * of joy * and|Vic- to- ry with-|
 e4 c2 (A2 c2) e2 | A6- A4 e2 | e4 c2 (d2 c2) B2 | c6- c4 z2 | z4 z4 z4 | z4 z2 z4 B2 | %17
w: in thy tem * ple|found * With-|in thy tem * ple|found *||and|
 (c2 d2) d2 (d2 B2) B2 | B4 B2 B4 A2 | e4 c2 (A2 c2) e2 | A6- A4 e2 | e4 c2 (d2 c2) B2 | c6- c6 |] %23
w: songs * of Joy * and|Vit- to- ry with-|in thy tem * ple|found * With|in thy tem * ple|found *|
V:2
 z4 z4 z4 | z4 z2 E2 E2 A2 | G4 G2 A4 A2 | A4 B2 A4 (GF) | E6- E4 E2 | A4 (GF E2) (F2 E2 | %6
w: |now shall my|head be lift- ed|high be lift- ed *|high * a|bove my * foes * a-|
 E2) E2 E2 E4 z2 | z4 z2 z4 E2 | (E2 F2) G2 A4 G2 | A4 (AG) F4 F2 | G6- G4 z2 | A6- A4 z2 | %12
w: round * * *|and|songs * of joy with-|in thy * Tem- ple|found *|found *|
 F6- F4 G2 | (A2 G2) F2 F4 E2 | E6- E4 z2 | z4 z2 z4 E2 | (E2 F2) G2 A4 G2 | A4 (AG) F4 F2 | %18
w: found * with-|in * thy Tem- ple|found *|and|songs * of joy with-|in thy * Tem- ple|
 G6- G4 z2 | A6- A4 z2 | F6- F4 G2 | (A2 G2) F2 F4 E2 | E6- E6 |] %23
w: found *|found *|found * with-|in * thy Tem- ple|found *|
V:3
 z4 z2 A2 c2 c2 | (c2 B2) A2 (c2 e2) e2 | e6- e6- | e4 e2 f4 g2 | a6- a4 g2 | %5
w: now shall my|head * be lift * ed|high *|* be lift- ed|high * a|
 (f2 e2) d2 (c2 B2) A2 | (c2 e2 c2 A4) z2 | z4 z4 z4 | z4 z2 z4 e2 | (e2 d2) c2 (d2 f2) ^d2 | %10
w: bove * my foes * a-|round * * *||and|songs * of joy * and|
 e4 e2 e4 d2 | c4 e2 e4 c2 | d6- (d2 c2) B2 | (c2 B2) A2 (B2 A2) G2 | A6- A4 z2 | z4 z4 z4 | %16
w: vic- to- ry with-|in thy Tem- ple|found * * with-|in * thy Tem * ple|found *||
 z4 z2 z4 e2 | (e2 d2) c2 (d2 f2) ^d2 | e4 e2 e4 d2 | c4 e2 e4 c2 | d6- (d2 c2) B2 | %21
w: and|songs * of joy * and|vic- to- ry with-|in thy Tem- ple|found * * with-|
 (c2 B2) A2 (B2 A2) G2 | A6- A6 |] %23
w: in * thy Tem- * ple|found *|
V:4
 z4 z4 z4 | z4 z2 z4 z2 | E,2 E,2 E,2 A,6- | A,4 G,2 F,4 E,2 | [A,,-A,]6 [A,,A,]4 E,2 | %5
w: ||now shall my head|* be lift- ed|high * a-|
 (D,2 C,2) B,,2 (A,,2 B,,2) (C,D, | E,2 C,2 A,,2 A,,4) z2 | (E,2 F,2) G,2 A,4 A,2 | %8
w: bove * my foes * a *|round * * *|songs * of joy and|
 A,4 G,2 F,4 E,2 | [A,,A,]4 [A,,A,]2 [B,,B,B,]4 B,,2 | E,6- E,4 z2 | [A,,A,-]6 [A,,A,]4 z2 | %12
w: vic- to- ry with-|in- thy- Tem- ple|found *|found *|
 D,6- D,4 E,2 | (A,2 E,2) F,2 D,4 E,2 | A,,6- A,,4 z2 | (E,2 F,2) G,2 A,4 A,2 | A,4 G,2 F,4 E,2 | %17
w: found * with-|in * thy Tem- ple|found *|songs * of joy and|vic- to- ry with-|
 [A,,A,]4 [A,,A,]2 [B,,B,B,]4 B,,2 | E,6- E,4 z2 | [A,,A,-]6 [A,,A,]4 z2 | D,6- D,4 E,2 | %21
w: in thy Tem- ple|found~ *|foud *|found * with-|
 (A,2 E,2) F,2 D,4 E,2 | A,,6- A,,6 |] %23
w: in * thy Tem- ple|found *|

